!!!COM: Palestrina, Giovanni Perluigi da
!!!OPR: Missa Jam Christus astra ascenderat
!!!OMD: Credo
!!!OTL: First Section
**kern	**kern	**kern	**kern
*Ibass	*Itenor	*Icalto	*Icant
!Bassus	!Tenor	!Altus	!Cantus
*clefF4	*clefGv2	*clefG2	*clefG2
*k[b-]	*k[b-]	*k[b-]	*k[b-]
*G:dor	*G:dor	*G:dor	*G:dor
*M4/2	*M4/2	*M4/2	*M4/2
=1	=1	=1	=1
0r	0r	0r	1g
.	.	.	1g
=2	=2	=2	=2
0r	1G	0r	1b-
.	1G	.	1g
=3	=3	=3	=3
0r	1B-	1d	1f
.	1G	1d	2.b-
.	.	.	4cc
=4	=4	=4	=4
0r	1F	1f	4dd
.	.	.	4ee
.	.	.	2.ff
.	2.B-	[1d	.
.	.	.	4ee
.	.	.	4dd
.	4c	.	4cc
=5	=5	=5	=5
0r	4d	1d]	4b-
.	4e	.	4a
.	2.f	.	4a
.	.	.	8g
.	.	.	8f
.	.	1c	1g
.	4e	.	.
.	2e	.	.
=6	=6	=6	=6
1D	2.d	2.f	1a
.	4e	4g	.
1D	2f	4a	1r
.	.	8g	.
.	.	8a	.
.	2d	2b-	.
=7	=7	=7	=7
1F	1c	2a	2r
.	.	2f	2a
1D	2d	2f	1a
.	[2f	2f	.
=8	=8	=8	=8
1C	4f]	1g	1cc
.	8e	.	.
.	8d	.	.
.	2e	.	.
2.F	2f	2c	[1a
.	2F	[2f	.
4G	.	.	.
=9	=9	=9	=9
4A	1c	4f]	2a]
4B-	.	4e	.
2.c	.	2e	2g
.	2G	1d	1g
4B-	.	.	.
2B-	[2d	.	.
=10	=10	=10	=10
1A	2d]	1e	1a
.	2c	.	.
1D	2.f	2r	2a
.	.	[2a	[2dd
.	4g	.	.
=11	=11	=11	=11
0r	2f	2a]	2dd]
.	2.e	2g	2cc
.	.	2a	2.ff
.	4d	.	.
.	[2d	2b-	.
.	.	.	4gg
=12	=12	=12	=12
0r	2d]	1a	2ff
.	2c#	.	2.ee
.	2d	2f	.
.	.	.	4dd
.	2G	2g	[2dd
=13	=13	=13	=13
1r	1A	2e	2dd]
.	.	2a	2cc#
2r	2.B-	2f	[1dd
[2G	.	[2b-	.
.	4c	.	.
=14	=14	=14	=14
2G]	4d	2b-]	1dd]
.	4e	.	.
2F	1f	2a	.
2B-	.	[1g	1r
2c	2e	.	.
=15	=15	=15	=15
2B-	2d	2g]	1r
2A	2c	2f	.
1G	2.g	1b-	2r
.	.	.	[2dd
.	4f	.	.
=16	=16	=16	=16
1A	1e	2r	2dd]
.	.	1a	2cc
1r	1r	.	2ff
.	.	2g	2gg
=17	=17	=17	=17
0r	0r	2b-	2ff
.	.	2cc	2ee
.	.	2b-	2dd
.	.	2a	2cc
=18	=18	=18	=18
0r	2r	2g	2dd
.	1d	4f	1ff
.	.	4g	.
.	.	4a	.
.	.	4b-	.
.	2c	2cc	[2ee
=19	=19	=19	=19
1r	2f	2a	4ee]
.	.	.	4dd
.	2g	2b-	1dd
1A	1e	2a	.
.	.	2a	2cc#
=20	=20	=20	=20
1B-	2r	2f	2dd
.	2d	2g	1dd
2A	2e	1a	.
2A	2f	.	[2cc
=21	=21	=21	=21
1G	2g	2d	2cc]
.	2G	2.g	2b
2E	2.c	.	1cc
.	.	4e	.
[2F	.	2a	.
.	4B-	.	.
=22	=22	=22	=22
2F]	2A	2f	1cc
2E-	2G	1g	.
2D	2A	.	2dd
2D	2A	2f#	2a
=23	=23	=23	=23
2G	1G	2.g	4b-
.	.	.	4a
1G	.	.	4g
.	.	8f	4a
.	.	8e	.
.	1r	1d	4b-
.	.	.	4cc
2B-	.	.	4dd
.	.	.	4b-
=24	=24	=24	=24
2A	2r	0r	2cc
2G	1d	.	2b-
1d	.	.	1a
.	2f	.	.
=25	=25	=25	=25
2c	2e	0r	0r
1B	2d	.	.
.	1g	.	.
2c	.	.	.
=26	=26	=26	=26
2.A	2f	0r	0r
.	1e	.	.
4B	.	.	.
2c	.	.	.
[2d	2f	.	.
=27	=27	=27	=27
4d]	2.d	0r	0r
4c	.	.	.
1B-	.	.	.
.	4e	.	.
.	2f	.	.
4A	[2g	.	.
4G	.	.	.
=28	=28	=28	=28
2A	2g]	1a	1r
2A	2f#	.	.
1G	2g	2b	1dd
.	2g	2b	.
=29	=29	=29	=29
0r	2c	1.cc	2ee-
.	2c	.	2ee-
.	1g	.	1dd
.	.	2b-	.
=30	=30	=30	=30
0r	2e	2g	2cc
.	1f	2a	2cc
.	.	2d	2a
.	[2d	2f	[2b-
=31	=31	=31	=31
1A	2d]	2e	2b-]
.	2c	1f	1a
2B-	2d	.	.
2B-	2d	4e	2g
.	.	4d	.
=32	=32	=32	=32
1A	2.e	4c	4a
.	.	4d	4b
.	.	4e	2.cc
.	4f	4c	.
2G	1g	2d	.
.	.	.	8b
.	.	.	8a
2G	.	2d	2b
=33	=33	=33	=33
2E	0r	2.c	0cc
2.F	.	.	.
.	.	4B-	.
.	.	4A	.
4E	.	4G	.
2E	.	[2c	.
=34	=34	=34	=34
2F	1d	2c]	0r
2G	.	2B	.
1C	1e-	2c	.
.	.	[2g	.
=35	=35	=35	=35
1r	0d	2g]	1a
.	.	2f#	.
1G	.	1g	1b-
=36	=36	=36	=36
2.A	1c	2e	1a
.	.	2e	.
4G	.	.	.
2F	2A	2f	2a
2G	[2B-	[2e	2g
=37	=37	=37	=37
2.D	2B-]	4e]	2f
.	.	4d	.
.	2A	1d	2f
4F	.	.	.
1E	1G	.	1g
.	.	2c#	.
=38	=38	=38	=38
1D	1A	2d	2f
.	.	1f	1a
1r	1r	.	.
.	.	2g	2b-
=39	=39	=39	=39
0r	0r	2a	2cc
.	.	2f	2dd
.	.	2g	2b-
.	.	2a	2cc
=40	=40	=40	=40
0r	0r	2b-	2dd
.	.	2g	2ee
.	.	2a	2ff
.	.	2a	2ee
=41	=41	=41	=41
2r	0r	2b-	2dd
2F	.	2.a	2.cc
1A	.	.	.
.	.	4g	4b-
.	.	[2f	2a
=42	=42	=42	=42
2.c	1r	2f]	1g
.	.	2e	.
4c	.	.	.
1d	2r	[1f	2f
.	2B-	.	2ff
=43	=43	=43	=43
1.B-	1d	1f]	2ff
.	.	.	2.dd
.	2.f	2B-	.
.	.	.	4dd
2A	.	2c	[2cc
.	4f	.	.
=44	=44	=44	=44
[0G	1g	2.d	2cc]
.	.	.	4b
.	.	4d	4a
.	2e	2G	4b
.	.	.	4cc
.	2d	[2g	[2dd
=45	=45	=45	=45
0G]	0g	2g]	2dd]
.	.	2e	1cc
.	.	1d	.
.	.	.	2b
=46	=46	=46	=46
[0C	2r	1e	[0cc
.	2g	.	.
.	2.e	2r	.
.	.	2c	.
.	4f	.	.
=47	=47	=47	=47
1C]	2g	2e	0cc]
.	2e	2g	.
2r	2f	2.a	.
2F	[2a	.	.
.	.	4g	.
=48	=48	=48	=48
2A	2a]	2f	0r
2c	2.g	2.e	.
1d	.	.	.
.	4f	4d	.
.	4f	[2d	.
.	8e	.	.
.	8d	.	.
=49	=49	=49	=49
2A	2e	2d]	1r
2A	2e	2c#	.
1B-	2d	2d	2r
.	2f	2d	2f
=50	=50	=50	=50
1r	2d	2f	2a
.	2c	2e	2cc
2r	1B-	1f	1dd
2B-	.	.	.
=51	=51	=51	=51
2G	2B-	2g	2b-
2F	2c	2a	2.a
1E-	[1e-	1b-	.
.	.	.	4g
.	.	.	[2g
=52	=52	=52	=52
2C	2e-]	1a	2g]
2D	4d	.	2f#
.	4c	.	.
1E-	2B-	2r	1g
.	2c	2g	.
=53	=53	=53	=53
1D	1d	2b-	2r
.	.	2a	2dd
1r	1r	2g	2ee-
.	.	[2f	2dd
=54	=54	=54	=54
1r	0r	4f]	2cc
.	.	4e	.
.	.	4d	2.b-
.	.	4c	.
1G	.	2d	.
.	.	.	4a
.	.	[2e	4g
.	.	.	4f
=55	=55	=55	=55
1B-	0r	4e]	4g
.	.	4d	4f
.	.	1d	4f
.	.	.	8e
.	.	.	8d
1A	.	.	1e
.	.	2c	.
=56	=56	=56	=56
2F	0r	2A	0d
2.G	.	2.B-	.
4F	.	4A	.
4F	.	[2d	.
8E	.	.	.
8D	.	.	.
=57	=57	=57	=57
1E	2r	2d]	1r
.	2g	2c#	.
1D	2f	4d	2r
.	.	4e	.
.	2d	4f	2dd
.	.	4g	.
=58	=58	=58	=58
2r	1f	0a	2cc
2d	.	.	2a
2c	1e	.	1cc
2A	.	.	.
=59	=59	=59	=59
2B-	0d	2r	1b-
2G	.	2g	.
1D	.	2f	2a
.	.	2d	2dd
=60	=60	=60	=60
0r	2r	1f	2cc
.	2d	.	2a
.	2c	1e	1cc
.	2A	.	.
=61	=61	=61	=61
1G	4B-	0d	1b-
.	4c	.	.
.	4d	.	.
.	4e	.	.
2F	2.f	.	[1a
2D	.	.	.
.	8e	.	.
.	8d	.	.
=62	=62	=62	=62
1F	2c	1r	1a]
.	1d	.	.
1E	.	2.g	1r
.	2c#	.	.
.	.	4g	.
=63	=63	=63	=63
1D	4d	2f	2.dd
.	4e	.	.
.	4f	2d	.
.	4g	.	4dd
1r	1a	1f	2cc
.	.	.	2a
=64	=64	=64	=64
2.A	1r	1e	1cc
4A	.	.	.
1B-	2.d	4d	1b-
.	.	4e	.
.	.	4f	.
.	4d	4g	.
=65	=65	=65	=65
1F	2c	4a	0a
.	.	4b-	.
.	2A	2.cc	.
2A	1c	.	.
.	.	4b-	.
2F	.	[2a	.
=66	=66	=66	=66
1G	1B-	2a]	1dd
.	.	2g	.
1r	2A	[1a	2cc
.	2f	.	2a
=67	=67	=67	=67
1F	1f	1a]	1cc
2G	2d	1g	1b-
2G	4B-	.	.
.	4c	.	.
=68	=68	=68	=68
0D	4d	2f	[0a
.	4e	.	.
.	2.f	2d	.
.	.	1f	.
.	4e	.	.
.	[2d	.	.
=69	=69	=69	=69
0A	2d]	0e	1a_
.	4c#	.	.
.	4B	.	.
.	1c#	.	1a_
=70	=70	=70	=70
0D	0d	0f#	0a]
*-	*-	*-	*-
!!!CDT: 1525/^1526/-1594/2/2
!!!OCY: Italia
!!!AGN: Mass (Paraphrase)
!!!AST: renaissance, vocal
!!!ASW: Hymn
!!!PWK: Masses, Book 5
!!!RNB: Cadence finals: D
!!!YOR: Le Opere Complete, v. 15, p. 20
!!!YOO: Rome, Italy: Fratelli Scalera
!!!END: 1992//
!!!EED: John Miller
!!!YEC: Copyright 2000, John Miller
!!!YEN: United States of America
!!!YEM: Rights to all derivative electronic formats reserved.
!!!YEM: Refer to licensing agreement for further details.
!!!YEM: This file must be accompanied by the licensing agreement.
!!!YEM: A copy of the licensing agreement may be found at http://www.music-cog.ohio-state.edu/HumdrumDatabases/Palestrina/license.txt
!!!EMD: converted to Humdrum by Bret Aarden
